test.cube
TITLE "aaaaaaaaaaaaaaaaaaaaaaaaaaaaaaaaabbbbbbbbbbbbbbbbbbcccccccccccccccccdddddddddeeeeeeeeeefffffffffffghil"
DOMAIN_MIN 0 0 0
DOMAIN_MAX 1 1 1
LUT_3D_SIZE 2
1.01 0.01 0.01
0.04 0.05 0.06
0.07 0.08 0.09
0.10 0.11 0.12
0.13 0.14 0.15
0.16 0.17 0.18
0.19 0.20 0.21
0.22 0.23 0.24
